X: 26734
T: Milburn
R: hornpipe
M: 4/4
K: Fmajor
|:f>g|a>ff>e f>cA>c|B>AB>d g2 g>a|b>ga>f (3gfe c>A|B>AB>d A2 f>g|
a>ff>e f>cA>c|B>AB>d g2 g>a|g>fe>d c>ae>g|f2 a2 f2:|
|:A>B|c2 A>c f>Ae>A|d2 B>d g>Bf>B|e2 c>e b>ga>g|g>fe>d c>BA>B|
c2 A>c f>Ae>A|d2 B>d g>Bf>B|e>fg>a b>ge>g|f2 a2 f2:|

